public/icons/cosmos.svg

<svg width="108" height="21" viewBox="0 0 108 21" fill="none" xmlns="http://www.w3.org/2000/svg">
<path d="M108 13.7569C107.884 13.8623 107.905 14.031 107.873 14.1681C107.451 15.6228 106.439 16.4872 105.006 16.8035C102.413 17.3833 100.093 16.7508 98.0588 15.0536C97.9429 14.9587 97.9323 14.8954 98.0377 14.7689C98.4278 14.3262 98.7967 13.8729 99.1657 13.4196C99.2711 13.2931 99.3238 13.3036 99.4503 13.4091C100.315 14.1153 101.232 14.7162 102.36 14.8954C103.235 15.0325 104.11 15.0957 104.921 14.6424C105.438 14.3578 105.712 13.9151 105.723 13.3142C105.723 12.7238 105.449 12.3022 104.921 12.0281C104.162 11.6275 103.33 11.4483 102.507 11.2375C101.675 11.0266 100.842 10.8052 100.093 10.3836C98.7757 9.64566 98.3224 8.48607 98.4278 7.04185C98.5543 5.35518 99.8088 3.96367 101.801 3.64742C103.857 3.33117 105.733 3.80555 107.409 5.06001C107.546 5.15489 107.589 5.21814 107.473 5.3868C107.125 5.8401 106.798 6.30393 106.482 6.77831C106.376 6.9259 106.313 6.91535 106.176 6.82048C105.312 6.2196 104.394 5.74522 103.319 5.62926C102.792 5.56601 102.265 5.5871 101.759 5.76631C100.905 6.07202 100.483 6.88373 100.768 7.71652C100.926 8.18036 101.306 8.41228 101.717 8.60203C102.434 8.92882 103.193 9.08695 103.952 9.28724C104.784 9.50862 105.628 9.75108 106.376 10.2044C107.251 10.7315 107.82 11.4694 107.947 12.5025C107.947 12.5235 107.979 12.5446 107.989 12.5552C108 12.9452 108 13.3563 108 13.7569Z" fill="#FEFEFE"/>
<path d="M0.0527344 9.38212C0.168693 9.21345 0.14761 9.00262 0.189777 8.81287C0.885531 5.43952 3.80559 3.2363 7.24219 3.43659C8.93941 3.54201 10.4153 4.09018 11.6803 5.22868C11.9543 5.48168 11.9649 5.47114 11.7119 5.75577C11.3429 6.17744 10.9634 6.59911 10.6155 7.03132C10.4996 7.1789 10.4363 7.14728 10.3098 7.04186C9.58245 6.40936 8.80237 5.86119 7.83253 5.66089C5.0706 5.0811 2.899 6.90482 2.53004 9.38212C2.32975 10.742 2.57221 12.0281 3.39446 13.1561C4.90193 15.2328 7.53736 15.2328 9.08699 14.3051C9.57191 14.0205 10.0252 13.6831 10.4363 13.3036C10.5418 13.1982 10.605 13.2088 10.6999 13.3142C11.1005 13.7359 11.5116 14.147 11.9227 14.5581C12.0281 14.6635 12.0387 14.7162 11.9333 14.8322C10.3942 16.4451 8.5072 17.1514 6.29344 17.0038C4.6173 16.8984 3.16254 16.2659 1.98187 15.0747C0.906614 13.9889 0.305736 12.6711 0.105443 11.1742C0.0949013 11.1215 0.126526 11.0477 0.0527344 11.0161C0.0527344 10.4679 0.0527344 9.93029 0.0527344 9.38212Z" fill="#FEFEFE"/>
<path d="M17.2564 19.8606C16.7504 19.3546 16.255 18.8486 15.749 18.3531C15.633 18.2372 15.7279 18.195 15.7806 18.1318C16.2444 17.6679 16.6977 17.2146 17.1616 16.7508C17.9522 15.9602 18.7534 15.159 19.5545 14.3684C19.681 14.2419 19.6916 14.1575 19.5967 14.01C17.9206 11.4589 18.1314 8.06442 20.1343 5.77687C21.5048 4.20615 23.2652 3.46823 25.3525 3.46823C26.7229 3.46823 28.009 3.80557 29.1581 4.55403C29.3162 4.65945 29.3689 4.57511 29.4532 4.49078C30.6971 3.24686 31.9411 2.01348 33.185 0.769552C33.3326 0.611426 33.4169 0.600884 33.5645 0.769552C33.9756 1.20176 34.3973 1.62343 34.8295 2.03456C34.9665 2.1716 34.9455 2.23485 34.819 2.36135C33.575 3.58419 32.3417 4.82812 31.0977 6.05096C30.9502 6.19854 30.9396 6.28287 31.0556 6.46208C32.8266 9.13968 32.4471 12.8187 30.149 15.0536C28.5677 16.5927 26.6491 17.1514 24.4775 16.9406C23.3917 16.8351 22.3903 16.4873 21.4837 15.8969C21.3361 15.802 21.2728 15.8653 21.1885 15.9496C19.913 17.2252 18.6374 18.4902 17.3619 19.7657C17.3302 19.7974 17.2986 19.829 17.2564 19.8606ZM29.7484 10.2676C29.7589 9.51918 29.5903 8.82343 29.2951 8.14876C29.2318 8.00117 29.1897 7.96955 29.0526 8.10659C27.0708 10.0884 25.0889 12.0703 23.1071 14.0521C22.9911 14.1681 22.9806 14.2208 23.1387 14.3051C24.5513 15.0641 25.985 15.1168 27.3976 14.3684C29.021 13.504 29.6746 12.0387 29.7484 10.2676ZM21.4204 12.4709C21.4731 12.4287 21.5153 12.3971 21.5575 12.3654C23.5499 10.3836 25.5317 8.39122 27.5241 6.40937C27.6717 6.26179 27.6084 6.21962 27.4714 6.14583C26.2802 5.49224 25.0362 5.38683 23.7712 5.84012C21.0409 6.8205 20.2187 10.1517 21.4204 12.4709Z" fill="#FEFEFE"/>
<path d="M59.0124 7.48461C59.0124 7.57948 59.0124 7.67436 59.0124 7.76923C59.0124 10.6471 59.0124 13.5356 59.0229 16.4134C59.0229 16.6559 58.9597 16.7086 58.7277 16.6981C58.1374 16.677 57.5471 16.6875 56.9673 16.6981C56.8091 16.6981 56.7354 16.677 56.7354 16.4872C56.7459 12.2811 56.7354 8.07494 56.7354 3.8688C56.7354 3.71067 56.767 3.65796 56.9356 3.65796C57.6314 3.6685 58.3271 3.6685 59.0124 3.65796C59.1705 3.65796 59.2232 3.73175 59.297 3.83717C60.4987 5.7136 61.711 7.57948 62.9128 9.45591C62.9866 9.57187 63.0709 9.68782 63.1553 9.82487C63.6613 9.04478 64.1462 8.30686 64.6206 7.54786C65.4217 6.30393 66.2229 5.06001 67.0241 3.80554C67.0979 3.67904 67.1927 3.65796 67.3192 3.65796C67.9728 3.65796 68.637 3.6685 69.2905 3.65796C69.5119 3.64742 69.5646 3.71067 69.5646 3.93205C69.5541 6.3461 69.5646 8.76015 69.5646 11.1742C69.5646 12.9347 69.5646 14.6846 69.5646 16.4451C69.5646 16.6454 69.5225 16.7086 69.3116 16.7086C68.7318 16.6875 68.152 16.6875 67.5722 16.7086C67.3509 16.7192 67.2771 16.6664 67.2771 16.424C67.2876 13.5145 67.2876 10.605 67.2876 7.70598C67.2876 7.62165 67.2876 7.53731 67.2876 7.36865C66.9714 7.82194 66.7078 8.22253 66.4443 8.61257C65.4006 10.1727 64.357 11.7224 63.3134 13.2826C63.1236 13.5566 63.1342 13.5566 62.955 13.2931C61.7005 11.4167 60.446 9.55078 59.1916 7.67436C59.1494 7.61111 59.1072 7.54786 59.0651 7.48461C59.044 7.47406 59.0229 7.48461 59.0124 7.48461Z" fill="#FEFEFE"/>
<path d="M84.2387 17.0143C80.3593 17.0038 77.4182 14.0732 77.4287 10.2255C77.4393 6.39882 80.4753 3.39443 84.3125 3.4366C88.2656 3.46822 91.1646 6.38828 91.1119 10.3625C91.0697 14.147 88.0337 17.0354 84.2387 17.0143ZM84.7552 5.55548C82.8894 5.56603 81.7087 6.07203 80.8548 7.19999C79.7374 8.67584 79.5582 10.3203 80.1801 12.0281C81.287 15.0536 85.2402 15.9075 87.4223 13.5883C88.4976 12.4498 88.856 11.0688 88.6557 9.52972C88.3605 7.14728 86.3892 5.51332 84.7552 5.55548Z" fill="#FEFEFE"/>
<path d="M44.2116 17.0038C42.3352 16.9405 40.6801 16.3291 39.2359 15.1168C39.0567 14.9692 39.004 14.8744 39.1938 14.6741C39.5733 14.2735 39.9211 13.8413 40.2585 13.4091C40.3639 13.272 40.4271 13.2931 40.5431 13.388C41.2705 13.9888 42.0506 14.5159 42.9677 14.7584C43.8848 15.0114 44.823 15.0957 45.7402 14.7584C46.6046 14.4421 46.9946 13.6831 46.7522 12.8293C46.6573 12.4708 46.4148 12.2495 46.1091 12.0703C45.4661 11.6908 44.7492 11.5115 44.0429 11.3323C43.1574 11.1004 42.2614 10.879 41.4286 10.4995C38.9935 9.39266 39.1516 6.3461 40.3744 4.97568C41.144 4.13234 42.1033 3.71067 43.2102 3.58417C45.1604 3.37334 46.9208 3.85826 48.5021 5.03893C48.6602 5.15489 48.6602 5.22868 48.5548 5.38681C48.2175 5.8401 47.8907 6.31448 47.5639 6.77831C47.4796 6.90481 47.4163 6.90481 47.3003 6.82048C46.5308 6.27231 45.7085 5.8401 44.7703 5.66089C44.1378 5.54493 43.4948 5.52385 42.8728 5.74522C42.04 6.04039 41.6289 6.80994 41.8503 7.62165C41.9557 8.00115 42.2192 8.25415 42.546 8.4439C43.1996 8.82341 43.927 8.98153 44.6438 9.17128C45.582 9.41374 46.5308 9.6562 47.3847 10.1411C48.5864 10.8158 49.1451 11.8489 49.0924 13.2298C49.0186 15.1168 47.8485 16.4662 45.9088 16.8667C45.6242 16.93 45.3396 16.9616 45.055 16.9932C44.7598 17.0143 44.4857 17.0249 44.2116 17.0038Z" fill="#FEFEFE"/>
</svg>

<svg width="108" height="21" fill="none" xmlns="http://www.w3.org/2000/svg"><path d="M108 13.757c-.116.105-.095.274-.127.411-.422 1.455-1.434 2.32-2.867 2.636-2.593.58-4.913-.053-6.947-1.75-.116-.095-.127-.159-.021-.285.39-.443.759-.896 1.128-1.35.105-.126.158-.115.284-.01.865.706 1.782 1.307 2.91 1.486.875.138 1.75.2 2.561-.253.517-.284.791-.727.802-1.328 0-.59-.274-1.012-.802-1.286-.759-.4-1.591-.58-2.414-.79-.832-.211-1.665-.433-2.414-.854-1.317-.738-1.77-1.898-1.665-3.342.126-1.687 1.38-3.078 3.373-3.395 2.056-.316 3.932.159 5.608 1.413.137.095.18.158.064.327a25.41 25.41 0 0 0-.991 1.391c-.106.148-.169.137-.306.042-.864-.6-1.782-1.075-2.857-1.19-.527-.064-1.054-.043-1.56.136-.854.306-1.276 1.118-.991 1.95.158.464.538.696.949.886.717.327 1.476.485 2.235.685.832.222 1.676.464 2.424.917.875.527 1.444 1.265 1.571 2.298 0 .021.032.043.042.053.011.39.011.801.011 1.202ZM.053 9.382c.116-.169.095-.38.137-.57.696-3.372 3.616-5.576 7.052-5.375 1.697.105 3.173.653 4.438 1.792.274.253.285.242.032.527-.37.421-.749.843-1.096 1.275-.116.148-.18.116-.306.01-.728-.632-1.508-1.18-2.477-1.38C5.07 5.08 2.899 6.905 2.53 9.382c-.2 1.36.042 2.646.864 3.774 1.508 2.077 4.143 2.077 5.693 1.15a7.853 7.853 0 0 0 1.35-1.002c.105-.106.168-.095.263.01.4.422.812.833 1.223 1.244.105.106.116.158.01.274-1.539 1.613-3.426 2.32-5.64 2.172-1.676-.106-3.13-.738-4.311-1.93C.907 13.99.306 12.672.105 11.175c-.01-.053.022-.126-.052-.158V9.382ZM17.256 19.86c-.506-.505-1.001-1.011-1.507-1.507-.116-.116-.021-.158.032-.221l1.38-1.381c.791-.79 1.592-1.592 2.393-2.383.127-.126.138-.21.043-.358-1.676-2.551-1.466-5.946.537-8.233 1.37-1.57 3.131-2.309 5.218-2.309 1.37 0 2.657.338 3.806 1.086.158.105.21.021.295-.063 1.244-1.244 2.488-2.478 3.732-3.721.148-.159.232-.17.38 0 .41.432.832.853 1.265 1.265.137.137.116.2-.011.326-1.244 1.223-2.477 2.467-3.721 3.69-.148.148-.158.232-.042.411 1.77 2.678 1.391 6.357-.907 8.592-1.581 1.539-3.5 2.097-5.672 1.887a6.58 6.58 0 0 1-2.993-1.044c-.148-.095-.211-.032-.296.053-1.275 1.275-2.55 2.54-3.826 3.816a.946.946 0 0 1-.106.095Zm12.492-9.592c.01-.749-.158-1.445-.453-2.12-.063-.147-.105-.178-.242-.041l-5.946 5.945c-.116.116-.126.169.032.253 1.412.76 2.846.812 4.259.063 1.623-.864 2.277-2.33 2.35-4.1ZM21.42 12.47l.137-.106c1.993-1.981 3.975-3.974 5.967-5.956.148-.147.084-.19-.053-.263-1.19-.654-2.435-.76-3.7-.306-2.73.98-3.552 4.312-2.35 6.63ZM59.012 7.485v.284c0 2.878 0 5.767.01 8.644 0 .243-.062.296-.294.285-.59-.021-1.18-.01-1.76 0-.159 0-.233-.021-.233-.21.01-4.207 0-8.413 0-12.62 0-.157.032-.21.2-.21.696.01 1.392.01 2.077 0 .158 0 .211.074.285.18 1.202 1.876 2.414 3.741 3.616 5.618.074.116.158.232.242.369.506-.78.991-1.518 1.466-2.277.8-1.244 1.602-2.488 2.403-3.742.074-.127.169-.148.295-.148.654 0 1.318.01 1.971 0 .222-.01.275.053.275.274-.01 2.414 0 4.828 0 7.242v5.271c0 .2-.043.264-.253.264-.58-.021-1.16-.021-1.74 0-.221.01-.295-.043-.295-.285.01-2.91.01-5.819.01-8.718v-.337c-.316.453-.58.854-.843 1.244-1.043 1.56-2.087 3.11-3.13 4.67-.19.274-.18.274-.359.01-1.255-1.876-2.509-3.742-3.763-5.619a208.35 208.35 0 0 1-.127-.19c-.021-.01-.042 0-.053 0ZM84.239 17.014c-3.88-.01-6.82-2.94-6.81-6.788.01-3.827 3.046-6.832 6.883-6.79 3.954.032 6.853 2.952 6.8 6.927-.042 3.784-3.078 6.672-6.873 6.651Zm.516-11.459c-1.866.011-3.046.517-3.9 1.645-1.118 1.476-1.297 3.12-.675 4.828 1.107 3.026 5.06 3.88 7.242 1.56 1.076-1.138 1.434-2.52 1.234-4.058-.296-2.383-2.267-4.017-3.9-3.975ZM44.212 17.004c-1.877-.064-3.532-.675-4.976-1.887-.18-.148-.232-.243-.042-.443.38-.4.727-.833 1.064-1.265.106-.137.17-.116.285-.021.727.6 1.508 1.128 2.425 1.37.917.253 1.855.338 2.772 0 .865-.316 1.255-1.075 1.012-1.929-.095-.358-.337-.58-.643-.759-.643-.38-1.36-.559-2.066-.738-.886-.232-1.782-.453-2.614-.833-2.436-1.106-2.277-4.153-1.055-5.523.77-.844 1.73-1.265 2.836-1.392 1.95-.21 3.71.274 5.292 1.455.158.116.158.19.053.348-.337.453-.664.927-.991 1.391-.084.127-.148.127-.264.042-.77-.548-1.591-.98-2.53-1.16-.632-.115-1.275-.136-1.897.085-.833.295-1.244 1.065-1.023 1.877.106.38.37.632.696.822.654.38 1.381.538 2.098.727.938.243 1.887.485 2.74.97 1.202.675 1.761 1.708 1.708 3.089-.073 1.887-1.243 3.236-3.183 3.637-.285.063-.57.095-.854.126-.295.021-.57.032-.843.01Z" fill="#FEFEFE"/></svg>
